X:228
T:Sir David Hunted Blaise
O:No 228 Wm Clarke of Feltwell
N:
M:C
L:1/8
K:C
B2 (de) (de) (de)|dg b2 dg b2|c'2 ab abab| agfg af d2:||/!
:bg g2dgBd|GBdg fa a2| (bg g2) dgBd| GBdg ag g2:||] 

